X: 1
T: Sinfully Delicious
Z: pbsinclair42
S: https://thesession.org/tunes/15620#setting29304
R: reel
M: 4/4
L: 1/8
K: Dmin
D2 (3DDD DFAF | G2 GE CDEC | D2 (3DDD DFAF | G2 cG EDCE |
D2 (3DDD DFAF | G2 GE CDEG | AccA cdef | edcA d2 dc :|
|: d3c d2 ef | ec (3ccc acgc | AddA d2 ef | edcA d2 dc |
dc _B3 BfB | (3_BBB fB gBaB  | AccA cdef | edcA d2 dc :|
|: AccA cdAc | cAcd efed | AccA c3 c | cAFA G2 GE |
AccA cdAc | cAcd efed | AccA cdef | edcA d2 dc :|
